!!!!SEGMENT: Wil3039-Na_tu_point_veu_la_viscontine.krn
!!!id: Wil3039
!!!AGN: Chanson
!!!SCT: Bernstein (1984)
!!!voices: 3
!!!COM: Adrian Willaert
!!!OTL: N'a tu point veu la viscontine
**kern	**kern	**kern
*part3	*part2	*part1
*staff3	*staff2	*staff1
*I"Bassus	*I"Tenor	*I"Superius
*I'B	*I'T	*I'S
*clefGv2	*clefGv2	*clefG2
*k[b-]	*k[b-]	*k[b-]
*F:	*F:	*F:
*M2/1	*M2/1	*M2/1
*met(C|)	*met(C|)	*met(C|)
=1	=1	=1
2r	1r	0r
2F	.	.
4F	2r	.
4G	.	.
4A	2c	.
4B-y	.	.
=2	=2	=2
2.c	4c	0r
.	4d	.
.	4e	.
4A	4f	.
2B-y	2g	.
2c	2e	.
=3	=3	=3
1d	2.f	2r
.	.	2f
.	4g	.
1D	2a	4f
.	.	4g
.	2f	4a
.	.	4b-y
=4	=4	=4
2r	2f	2.cc
2F	2a	.
.	.	4a
2G	2g	2b-y
2A	2e	2cc
=5	=5	=5
2D	2f	2dd
2G	2g	2b-y
4G	2e	2b-y
4A	.	.
4B-y	2d	2dd
4G	.	.
=6	=6	=6
2A	2r	2cc
2D	2f	2a
2F	2c	2a
2C	2e	2cc
=7	=7	=7
4D	2d	2b-y
4E	.	.
4F	2.c	2a
4G	.	.
4A	.	2a
4F	4A	.
2G	2B-y	2g
=8	=8	=8
2E	2c	2g
2F	2A	2f
1C	1G	2f
.	.	2e
=9	=9	=9
2r	1F	0f
2F	.	.
4F	2r	.
4G	.	.
4A	2c	.
4B-y	.	.
=10	=10	=10
2c	4c	0r
.	4d	.
4c	4e	.
4A	4f	.
2B-y	2g	.
2c	4g	.
.	4e	.
=11	=11	=11
1d	2.f	2r
.	.	2f
.	4g	.
1D	2a	4f
.	.	4g
.	2f	4a
.	.	4b-y
=12	=12	=12
2r	2f	2cc
2F	2a	4cc
.	.	4a
2G	2g	2b-y
2A	2e	2cc
=13	=13	=13
2D	2f	2dd
2G	2g	2b-y
4G	2e	2b-y
4A	.	.
4B-y	2d	2dd
4G	.	.
=14	=14	=14
2A	2r	2cc
2D	2f	2a
2F	2c	4a
.	.	4b-y
2C	2e	4cc
.	.	4a
=15	=15	=15
4D	2d	2b-y
4E	.	.
4F	2.c	2a
4G	.	.
4A	.	2a
4F	4A	.
2G	2B-y	2g
=16	=16	=16
2E	2c	2g
2F	2A	2f
1C	1G	2f
.	.	2e
=17	=17	=17
1F	2r	2f
.	4A	4f
.	4B-y	4g
2r	2c	1a
4F	2d	.
4G	.	.
=18	=18	=18
2A	2c	2r
2B-y	2d	4f
.	.	4g
2A	2e	2a
2F	2f	2a
=19	=19	=19
2c	2e	2a
2d	2.f	2a
2A	.	2a
.	4e	.
2d	4f	2a
.	4d	.
=20	=20	=20
2c	2e	2.a
2d	2f	.
.	.	4b-y
4c	4e	2cc
4B-y	4d	.
4A	4c	2cc
4G	4B-y	.
=21	=21	=21
2F	2A	2cc
1G	4d	2b-y
.	4e	.
.	4f	2a
.	4g	.
2F	[2a	2cc
=22	=22	=22
1G	4a]	2.b-y
.	4g	.
.	1g	.
.	.	8aL
.	.	8gJ
1d	.	1a
.	2f	.
=23	=23	=23
2r	2.e	1g
2c	.	.
.	8dL	.
.	8cJ	.
2c	1d	2r
2B-y	.	2f
=24	=24	=24
4A	1c	2f
4B-y	.	.
4c	.	2e
4A	.	.
2B-y	1r	2d
[2A	.	2f
=25	=25	=25
4A]	1r	2.e
4G	.	.
1c	.	.
.	.	8dL
.	.	8cJ
.	2F	1d
2BnXi	2G	.
=26	=26	=26
2c	2.A	1c
4F	.	.
4G	4B-y	.
2A	2c	2r
2B-y	2d	4f
.	.	4g
=27	=27	=27
2A	2e	2a
2F	2f	2a
2c	2e	2a
2d	2f	2a
=28	=28	=28
2A	2f	2a
2c	2e	2a
2B-y	2f	2d
2B-y	2d	2f
=29	=29	=29
2.A	2c	2f
.	2r	2e
4G	.	.
2F	2r	2f
2BB-y	4F	2d
.	4G	.
=30	=30	=30
2.F	2A	2c
.	2A	2f
4E	.	.
2D	2A	2f
2C	2A	2e
=31	=31	=31
1D	2A	2f
.	2A	2d
1r	2A	4c
.	.	4d
.	2A	4e
.	.	4f
=32	=32	=32
0r	2B-y	2g
.	2A	1f
.	2B-y	.
.	2G	2e
=33	=33	=33
2r	2F	1f
4A	4F	.
4B-y	4G	.
2c	2A	2r
2F	2A	4c
.	.	4d
=34	=34	=34
2c	2A	2e
4A	4F	2f
4B-y	4G	.
2c	2A	2e
2F	2A	4c
.	.	4d
=35	=35	=35
2c	2A	2e
4F	4A	2f
4D	4B-y	.
2A	2c	2e
2F	2c	4f
.	.	4e
=36	=36	=36
2G	2B-y	2d
4F	4A	2d
4F	4A	.
2E	2G	2c
2D	2F	4A
.	.	4B-y
=37	=37	=37
2C	2G	1c
4A	4F	.
4B-y	4G	.
2c	2A	2r
2F	2A	4c
.	.	4d
=38	=38	=38
2c	2A	2e
4A	4F	2f
4B-y	4G	.
2c	2A	2e
2F	2A	4c
.	.	4d
=39	=39	=39
2c	2A	2e
4F	2A	2f
4D	.	.
2G	2.B-y	2d
4E	.	4g
4F	4A	4f
=40	=40	=40
2C	2G	2e
2D	2F	2.f
1C	1G	.
.	.	4e
.	.	4e
.	.	8dL
.	.	8eJ
=41	=41	=41
00Fl	00Fl	00fl
==	==	==
*-	*-	*-
!!!system-decoration: [*]
!!!RDF**kern: i = editorial accidental
!!!RDF**kern: l = terminal long
!!!ENC: Benjamin Ory
!!!END: 2023/10/15
!!!EED: Benjamin Ory
!!!EEV: 2023/10/15
!!!YEC: Copyright 2023 Benjamin Ory, All Rights Reserved
!!!ONB: Translated from MusicXML on 2023/10/15
